icon-themes/sifr_svg/cmd/lc_sectionshrinkbottom.svg

<svg viewBox="0 0 24 24" xmlns="http://www.w3.org/2000/svg"><path d="m11 9v5l-1.28125-1.6875c-.1903-.18267-.46186-.3125-.71875-.3125h-1v.414062.585938c0 .30945.0903.55232.28125.75.71875 1.024166 1.81875 2.225838 2.730469 3.25h2.019531l2.6875-3.25c.19095-.19768.28125-.44055.28125-.75v-.585938-.414062h-1c-.25689 0-.52846.12983-.71875.3125l-1.28125 1.6875v-5zm-8 10v2h17v-2z" fill="#555753"/></svg>

<svg xmlns="http://www.w3.org/2000/svg" viewBox="0 0 24 24">
  <path
     style="fill:#555753"
     d="M 11 9 L 11 14 L 9.71875 12.3125 C 9.52845 12.12983 9.25689 12 9 12 L 8 12 L 8 12.414062 L 8 13 C 8 13.30945 8.0903 13.55232 8.28125 13.75 C 9 14.774166 10.1 15.975838 11.011719 17 L 13.03125 17 L 15.71875 13.75 C 15.9097 13.55232 16 13.30945 16 13 L 16 12.414062 L 16 12 L 15 12 C 14.74311 12 14.47154 12.12983 14.28125 12.3125 L 13 14 L 13 9 L 11 9 z M 3 19 L 3 21 L 20 21 L 20 19 L 3 19 z "
     />
</svg>
